X:14
T: Két ibolya, ha leszakítanálak...
L: 1/4
M: 4/4
K: F
g>f e<d | f<f g<g | f<a a2 | 
g>f e<d | c>c f<f | e<d d2 | 
d<d f f | B B c<c | B<d d2 | 
c>B A<G | F>F B<B | A<G G2 | 

